X: 35607
T: Saddle The Pony
R: jig
M: 6/8
K: Gmajor
|:D|GBA G2 B|def gdB|GBA G2 B|AFD AFD|
GBA G2 B|def gfg|ege dBA|BGF G2:|
|:d|ege edB|def gfg|ege edB|dBA ABd|
ege edB|def gfg|e/f/ge dBA|BAF G2:|

